material/.icons/material/dice-d4.svg

<svg xmlns="http://www.w3.org/2000/svg" viewBox="0 0 24 24"><path d="M10.25 15.15l1.67-2.68v2.68h-1.67M21.92 21H2.08c-.84 0-1.36-.92-.92-1.64l9.92-16.23c.42-.69 1.42-.69 1.84 0l9.92 16.23c.44.72-.08 1.64-.92 1.64m-7.63-5.85h-.86v-4.73h-1.52l-3.16 4.99.07.95h3.1V18h1.51v-1.64h.86v-1.21z"/></svg>

<?xml version="1.0" encoding="UTF-8"?><!DOCTYPE svg PUBLIC "-//W3C//DTD SVG 1.1//EN" "http://www.w3.org/Graphics/SVG/1.1/DTD/svg11.dtd"><svg xmlns="http://www.w3.org/2000/svg" xmlns:xlink="http://www.w3.org/1999/xlink" version="1.1" id="mdi-dice-d4" width="24" height="24" viewBox="0 0 24 24"><path d="M10.25 15.15L11.92 12.47V15.15H10.25M21.92 21H2.08C1.24 21 .72 20.08 1.16 19.36L11.08 3.13C11.5 2.44 12.5 2.44 12.92 3.13L22.84 19.36C23.28 20.08 22.76 21 21.92 21M14.29 15.15H13.43V10.42H11.91L8.75 15.41L8.82 16.36H11.92V18H13.43V16.36H14.29V15.15Z" /></svg>
